; generated by PrusaSlicer 2.6.1+MacOS-arm64 on 2023-11-08 at 11:53:55 UTC


;
;
; 

; external perimeters extrusion width = 0.45mm
; perimeters extrusion width = 0.45mm
; infill extrusion width = 0.45mm
; solid infill extrusion width = 0.45mm
; top infill extrusion width = 0.40mm
; first layer extrusion width = 0.42mm

M73 P0 R160
M73 Q0 S162
M201 X1000 Y1000 Z200 E5000 ; sets maximum accelerations, mm/sec^2
M203 X200 Y200 Z12 E120 ; sets maximum feedrates, mm / sec
M204 S1250 T1250 ; sets acceleration (S) and retract acceleration (R), mm/sec^2
M205 X8.00 Y8.00 Z0.40 E4.50 ; sets the jerk limits, mm/sec
M205 S0 T0 ; sets the minimum extruding and travel feed rate, mm/sec
;TYPE:Custom
M862.3 P "MK3" ; printer model check
M862.1 P0.4 ; nozzle diameter check
M115 U3.13.0 ; tell printer latest fw version
G90 ; use absolute coordinates
M83 ; extruder relative mode
M104 S215 ; set extruder temp
M140 S60 ; set bed temp
M190 S60 ; wait for bed temp
M109 S215 ; wait for extruder temp
G28 W ; home all without mesh bed level
G80 ; mesh bed leveling

G1 Z0.2 F720
G1 Y-3 F1000 ; go outside print area
G92 E0
G1 X60 E9 F1000 ; intro line
G1 X100 E12.5 F1000 ; intro line

G92 E0
M221 S95

; Don't change E values below. Excessive value can damage the printer.

M907 E538 ; set extruder motor current
G21 ; set units to millimeters
G90 ; use absolute coordinates
M83 ; use relative distances for extrusion
M900 K0.05 ; Filament gcode LA 1.5
M900 K30 ; Filament gcode LA 1.0
M107
;LAYER_CHANGE
;Z:0.2
;HEIGHT:0.2
;BEFORE_LAYER_CHANGE
G92 E0.0
;0.2


G1 E-.8 F2100
G1 Z.4 F720
;AFTER_LAYER_CHANGE
;0.2
G1 X76.442 Y97.817 F10800
G1 Z.2 F720
G1 E.8 F2100
M204 S800
;TYPE:Skirt/Brim
;WIDTH:0.42
M73 Q0 S161
G1 F1200
G1 X77.382 Y97.623 E.03009
G1 X172.618 Y97.623 E2.98606
G1 X173.925 Y98.015 E.04278
G1 X174.801 Y99.06 E.04275
G1 X174.995 Y100 E.03009
G1 X174.995 Y110 E.31354
G1 X174.603 Y111.307 E.04278
G1 X173.558 Y112.183 E.04275
G1 X172.618 Y112.377 E.03009
G1 X77.382 Y112.377 E2.98606
G1 X76.075 Y111.985 E.04278
G1 X75.199 Y110.94 E.04275
G1 X75.005 Y110 E.03009
G1 X75.005 Y100 E.31354
G1 X75.397 Y98.693 E.04278
G1 X76.396 Y97.855 E.04088
M204 S1000
; printing object product.stl id:0 copy 0
;WIPE_START
G1 F8640
G1 X77.382 Y97.623 E-.23389
G1 X79.834 Y97.623 E-.56611
;WIPE_END
G1 Z.6 F720
G1 X136.77 Y104.797 F10800
G1 Z.2 F720
G1 E.8 F2100
M204 S800
;TYPE:Perimeter
;WIDTH:0.419999
G1 F1200
G1 X136.787 Y104.721 E.00244
G1 X136.787 Y100.787 E.12335
G1 X171.595 Y100.787 E1.09138
G1 X171.595 Y109.213 E.26419
G1 X78.405 Y109.213 E2.9219
G1 X78.405 Y100.787 E.26419
G1 X113.213 Y100.787 E1.09138
G1 X113.213 Y104.721 E.12335
G1 X113.229 Y104.855 E.00423
G1 X113.342 Y105.081 E.00792
G1 X113.605 Y105.26 E.00997
G1 X113.779 Y105.287 E.00552
G1 X136.221 Y105.287 E.70365
G1 X136.319 Y105.279 E.00308
G1 X136.545 Y105.185 E.00767
G1 X136.731 Y104.966 E.00901
G1 X136.757 Y104.855 E.00357
M204 S1000
G1 X136.41 Y104.721 F10800
M204 S800
;TYPE:External perimeter
G1 F1200
G1 X136.41 Y100.41 E.13517
G1 X171.972 Y100.41 E1.11502
G1 X171.972 Y109.59 E.28783
G1 X78.028 Y109.59 E2.94554
G1 X78.028 Y100.41 E.28783
G1 X113.59 Y100.41 E1.11502
G1 X113.59 Y104.721 E.13517
G1 X113.633 Y104.841 E.004
G1 X113.779 Y104.91 E.00506
G1 X136.221 Y104.91 E.70365
G1 X136.367 Y104.841 E.00506
G1 X136.39 Y104.778 E.0021
M204 S1000
G1 X136.796 Y104.618 F10800
;WIPE_START
G1 F8640
G1 X136.406 Y101.313 E-.8
;WIPE_END
G1 Z.6 F720
G1 X171.425 Y101.721 F10800
G1 Z.2 F720
G1 E.8 F2100
M204 S800
;TYPE:Solid infill
;WIDTH:0.420835
G1 F1200
G1 X170.831 Y101.126 E.02642
G1 X170.296 Y101.126 E.01681
G1 X171.255 Y102.086 E.04264
G1 X171.255 Y102.62 E.01678
G1 X169.762 Y101.126 E.06637
G1 X169.227 Y101.126 E.01681
G1 X171.255 Y103.154 E.09012
G1 X171.255 Y103.689 E.01681
G1 X168.693 Y101.126 E.11388
G1 X168.158 Y101.126 E.01681
G1 X171.255 Y104.223 E.13763
G1 X171.255 Y104.758 E.01681
G1 X167.624 Y101.126 E.16138
G1 X167.089 Y101.126 E.01681
G1 X171.255 Y105.292 E.18514
G1 X171.255 Y105.827 E.01681
G1 X166.555 Y101.126 E.20889
G1 X166.02 Y101.126 E.01681
G1 X171.255 Y106.361 E.23264
G1 X171.255 Y106.896 E.01681
G1 X165.486 Y101.126 E.2564
G1 X164.952 Y101.126 E.01678
G1 X171.255 Y107.43 E.28013
G1 X171.255 Y107.965 E.01681
G1 X164.417 Y101.126 E.3039
G1 X163.883 Y101.126 E.01678
G1 X171.255 Y108.499 E.32763
G1 X171.255 Y108.874 E.01178
G1 X171.095 Y108.874 E.00503
G1 X163.348 Y101.126 E.3443
G1 X162.814 Y101.126 E.01678
G1 X170.561 Y108.874 E.3443
G1 X170.026 Y108.874 E.01681
G1 X162.279 Y101.126 E.3443
G1 X161.745 Y101.126 E.01678
G1 X169.492 Y108.874 E.3443
G1 X168.958 Y108.874 E.01678
G1 X161.21 Y101.126 E.34432
G1 X160.676 Y101.126 E.01678
G1 X168.423 Y108.874 E.3443
G1 X167.889 Y108.874 E.01678
G1 X160.142 Y101.126 E.3443
G1 X159.607 Y101.126 E.01681
G1 X167.354 Y108.874 E.3443
G1 X166.82 Y108.874 E.01678
G1 X159.073 Y101.126 E.3443
G1 X158.538 Y101.126 E.01681
M73 P0 R159
G1 X166.285 Y108.874 E.3443
G1 X165.751 Y108.874 E.01678
G1 X158.004 Y101.126 E.3443
G1 X157.469 Y101.126 E.01681
G1 X165.216 Y108.874 E.3443
G1 X164.682 Y108.874 E.01678
G1 X156.935 Y101.126 E.3443
G1 X156.4 Y101.126 E.01681
G1 X164.147 Y108.874 E.3443
G1 X163.613 Y108.874 E.01678
G1 X155.866 Y101.126 E.3443
G1 X155.331 Y101.126 E.01681
G1 X163.079 Y108.874 E.34432
G1 X162.544 Y108.874 E.01681
G1 X154.797 Y101.126 E.3443
G1 X154.263 Y101.126 E.01678
G1 X162.01 Y108.874 E.3443
G1 X161.475 Y108.874 E.01681
G1 X153.728 Y101.126 E.3443
G1 X153.194 Y101.126 E.01678
G1 X160.941 Y108.874 E.3443
G1 X160.406 Y108.874 E.01681
G1 X152.659 Y101.126 E.3443
G1 X152.125 Y101.126 E.01678
G1 X159.872 Y108.874 E.3443
G1 X159.337 Y108.874 E.01681
G1 X151.59 Y101.126 E.3443
G1 X151.056 Y101.126 E.01678
G1 X158.803 Y108.874 E.3443
G1 X158.268 Y108.874 E.01681
G1 X150.521 Y101.126 E.3443
G1 X149.987 Y101.126 E.01678
G1 X157.734 Y108.874 E.3443
G1 X157.2 Y108.874 E.01678
G1 X149.452 Y101.126 E.34432
G1 X148.918 Y101.126 E.01678
G1 X156.665 Y108.874 E.3443
G1 X156.131 Y108.874 E.01678
G1 X148.384 Y101.126 E.3443
G1 X147.849 Y101.126 E.01681
G1 X155.596 Y108.874 E.3443
G1 X155.062 Y108.874 E.01678
G1 X147.315 Y101.126 E.3443
G1 X146.78 Y101.126 E.01681
G1 X154.527 Y108.874 E.3443
G1 X153.993 Y108.874 E.01678
G1 X146.246 Y101.126 E.3443
G1 X145.711 Y101.126 E.01681
G1 X153.458 Y108.874 E.3443
G1 X152.924 Y108.874 E.01678
G1 X145.177 Y101.126 E.3443
G1 X144.642 Y101.126 E.01681
G1 X152.389 Y108.874 E.3443
G1 X151.855 Y108.874 E.01678
M73 Q0 S160
G1 X144.108 Y101.126 E.3443
G1 X143.573 Y101.126 E.01681
G1 X151.321 Y108.874 E.34432
G1 X150.786 Y108.874 E.01681
G1 X143.039 Y101.126 E.3443
G1 X142.505 Y101.126 E.01678
G1 X150.252 Y108.874 E.3443
G1 X149.717 Y108.874 E.01681
G1 X141.97 Y101.126 E.3443
G1 X141.436 Y101.126 E.01678
G1 X149.183 Y108.874 E.3443
G1 X148.648 Y108.874 E.01681
G1 X140.901 Y101.126 E.3443
G1 X140.367 Y101.126 E.01678
G1 X148.114 Y108.874 E.3443
G1 X147.579 Y108.874 E.01681
G1 X139.832 Y101.126 E.3443
G1 X139.298 Y101.126 E.01678
G1 X147.045 Y108.874 E.3443
G1 X146.511 Y108.874 E.01678
G1 X138.763 Y101.126 E.34432
G1 X138.229 Y101.126 E.01678
G1 X145.976 Y108.874 E.3443
G1 X145.442 Y108.874 E.01678
G1 X137.694 Y101.126 E.34432
G1 X137.16 Y101.126 E.01678
G1 X144.907 Y108.874 E.3443
G1 X144.373 Y108.874 E.01678
G1 X137.126 Y101.627 E.32206
G1 X137.126 Y102.161 E.01678
G1 X143.838 Y108.874 E.2983
G1 X143.304 Y108.874 E.01678
G1 X137.126 Y102.696 E.27455
G1 X137.126 Y103.23 E.01678
G1 X142.769 Y108.874 E.2508
G1 X142.235 Y108.874 E.01678
G1 X137.126 Y103.764 E.22707
G1 X137.125 Y104.298 E.01678
G1 X141.7 Y108.874 E.20333
G1 X141.166 Y108.874 E.01678
G1 X137.118 Y104.825 E.17991
G1 X137.101 Y104.936 E.00353
G1 X137.037 Y105.115 E.00597
G1 X136.973 Y105.215 E.00373
G1 X140.632 Y108.874 E.16261
G1 X140.097 Y108.874 E.01681
G1 X136.706 Y105.482 E.15072
G1 X136.505 Y105.582 E.00705
G1 X136.304 Y105.615 E.0064
G1 X139.563 Y108.874 E.14483
G1 X139.028 Y108.874 E.01681
G1 X135.77 Y105.615 E.14481
G1 X135.236 Y105.616 E.01678
G1 X138.494 Y108.874 E.14479
G1 X137.959 Y108.874 E.01681
G1 X134.702 Y105.616 E.14476
G1 X134.167 Y105.616 E.01681
G1 X137.425 Y108.874 E.14479
G1 X136.89 Y108.874 E.01681
G1 X133.633 Y105.616 E.14476
G1 X133.099 Y105.617 E.01678
G1 X136.356 Y108.874 E.14474
G1 X135.821 Y108.874 E.01681
G1 X132.565 Y105.617 E.14472
G1 X132.031 Y105.617 E.01678
G1 X135.287 Y108.874 E.14472
G1 X134.753 Y108.874 E.01678
G1 X131.497 Y105.618 E.1447
G1 X130.962 Y105.618 E.01681
G1 X134.218 Y108.874 E.1447
G1 X133.684 Y108.874 E.01678
G1 X130.428 Y105.618 E.1447
G1 X129.894 Y105.618 E.01678
G1 X133.149 Y108.874 E.14467
G1 X132.615 Y108.874 E.01678
G1 X129.36 Y105.619 E.14465
G1 X128.826 Y105.619 E.01678
G1 X132.08 Y108.874 E.14463
G1 X131.546 Y108.874 E.01678
G1 X128.291 Y105.619 E.14465
G1 X127.757 Y105.619 E.01678
G1 X131.011 Y108.874 E.14463
G1 X130.477 Y108.874 E.01678
G1 X127.223 Y105.62 E.14461
G1 X126.689 Y105.62 E.01678
G1 X129.942 Y108.874 E.14459
G1 X129.408 Y108.874 E.01678
G1 X126.155 Y105.62 E.14459
G1 X125.621 Y105.621 E.01678
G1 X128.874 Y108.874 E.14456
G1 X128.339 Y108.874 E.01681
G1 X125.086 Y105.621 E.14456
G1 X124.552 Y105.621 E.01678
G1 X127.805 Y108.874 E.14456
G1 X127.27 Y108.874 E.01681
G1 X124.018 Y105.621 E.14454
G1 X123.484 Y105.622 E.01678
G1 X126.736 Y108.874 E.14452
G1 X126.201 Y108.874 E.01681
G1 X122.95 Y105.622 E.1445
G1 X122.415 Y105.622 E.01681
G1 X125.667 Y108.874 E.14452
G1 X125.132 Y108.874 E.01681
G1 X121.881 Y105.622 E.1445
G1 X121.347 Y105.623 E.01678
G1 X124.598 Y108.874 E.14447
G1 X124.064 Y108.874 E.01678
G1 X120.813 Y105.623 E.14447
G1 X120.279 Y105.623 E.01678
G1 X123.529 Y108.874 E.14445
G1 X122.995 Y108.874 E.01678
G1 X119.744 Y105.623 E.14447
G1 X119.21 Y105.624 E.01678
G1 X122.46 Y108.874 E.14443
G1 X121.926 Y108.874 E.01678
G1 X118.676 Y105.624 E.14443
G1 X118.142 Y105.624 E.01678
G1 X121.391 Y108.874 E.14441
G1 X120.857 Y108.874 E.01678
G1 X117.608 Y105.625 E.14439
G1 X117.074 Y105.625 E.01678
G1 X120.322 Y108.874 E.14436
G1 X119.788 Y108.874 E.01678
G1 X116.539 Y105.625 E.14439
G1 X116.005 Y105.625 E.01678
G1 X119.253 Y108.874 E.14436
G1 X118.719 Y108.874 E.01678
G1 X115.471 Y105.626 E.14434
G1 X114.937 Y105.626 E.01678
G1 X118.185 Y108.874 E.14434
G1 X117.65 Y108.874 E.01681
G1 X114.233 Y105.457 E.15185
M204 S1000
;WIPE_START
G1 F8640
G1 X116.683 Y107.907 E-.8
;WIPE_END
G1 Z.6 F720
G1 X113.043 Y101.594 F10800
G1 Z.2 F720
G1 E.8 F2100
M204 S800
G1 F1200
G1 X112.575 Y101.126 E.0208
G1 X112.041 Y101.126 E.01678
G1 X112.874 Y101.959 E.03702
G1 X112.874 Y102.494 E.01681
G1 X111.506 Y101.126 E.06079
G1 X110.972 Y101.126 E.01678
G1 X112.874 Y103.028 E.08452
G1 X112.874 Y103.563 E.01681
G1 X110.437 Y101.126 E.1083
G1 X109.903 Y101.126 E.01678
G1 X113.043 Y104.267 E.13956
M204 S1000
;WIPE_START
G1 F8640
G1 X110.594 Y101.817 E-.8
;WIPE_END
G1 Z.6 F720
G1 X109.199 Y100.957 F10800
G1 Z.2 F720
G1 E.8 F2100
M204 S800
G1 F1200
G1 X112.874 Y104.631 E.16329
G1 X112.898 Y104.934 E.00955
G1 X112.963 Y105.115 E.00604
G1 X113.08 Y105.299 E.00685
G1 X113.261 Y105.465 E.00772
G1 X113.501 Y105.585 E.00843
G1 X113.868 Y105.626 E.0116
G1 X117.116 Y108.874 E.14434
G1 X116.581 Y108.874 E.01681
G1 X108.834 Y101.126 E.3443
G1 X108.3 Y101.126 E.01678
G1 X116.047 Y108.874 E.3443
G1 X115.512 Y108.874 E.01681
G1 X107.765 Y101.126 E.3443
G1 X107.231 Y101.126 E.01678
G1 X114.978 Y108.874 E.3443
G1 X114.443 Y108.874 E.01681
G1 X106.696 Y101.126 E.3443
G1 X106.162 Y101.126 E.01678
G1 X113.909 Y108.874 E.3443
G1 X113.374 Y108.874 E.01681
G1 X105.627 Y101.126 E.3443
G1 X105.093 Y101.126 E.01678
M73 P1 R159
M73 Q1 S160
G1 X112.84 Y108.874 E.3443
G1 X112.306 Y108.874 E.01678
G1 X104.558 Y101.126 E.34432
G1 X104.024 Y101.126 E.01678
G1 X111.771 Y108.874 E.3443
G1 X111.237 Y108.874 E.01678
G1 X103.49 Y101.126 E.3443
G1 X102.955 Y101.126 E.01681
G1 X110.702 Y108.874 E.3443
G1 X110.168 Y108.874 E.01678
G1 X102.421 Y101.126 E.3443
G1 X101.886 Y101.126 E.01681
G1 X109.633 Y108.874 E.3443
G1 X109.099 Y108.874 E.01678
G1 X101.352 Y101.126 E.3443
G1 X100.817 Y101.126 E.01681
G1 X108.564 Y108.874 E.3443
G1 X108.03 Y108.874 E.01678
G1 X100.283 Y101.126 E.3443
G1 X99.748 Y101.126 E.01681
G1 X107.495 Y108.874 E.3443
G1 X106.961 Y108.874 E.01678
G1 X99.214 Y101.126 E.3443
G1 X98.679 Y101.126 E.01681
G1 X106.427 Y108.874 E.34432
G1 X105.892 Y108.874 E.01681
G1 X98.145 Y101.126 E.3443
G1 X97.611 Y101.126 E.01678
G1 X105.358 Y108.874 E.3443
G1 X104.823 Y108.874 E.01681
G1 X97.076 Y101.126 E.3443
G1 X96.542 Y101.126 E.01678
G1 X104.289 Y108.874 E.3443
G1 X103.754 Y108.874 E.01681
G1 X96.007 Y101.126 E.3443
G1 X95.473 Y101.126 E.01678
G1 X103.22 Y108.874 E.3443
G1 X102.685 Y108.874 E.01681
G1 X94.938 Y101.126 E.3443
G1 X94.404 Y101.126 E.01678
G1 X102.151 Y108.874 E.3443
G1 X101.616 Y108.874 E.01681
G1 X93.869 Y101.126 E.3443
G1 X93.335 Y101.126 E.01678
G1 X101.082 Y108.874 E.3443
G1 X100.548 Y108.874 E.01678
G1 X92.8 Y101.126 E.34432
G1 X92.266 Y101.126 E.01678
G1 X100.013 Y108.874 E.3443
G1 X99.479 Y108.874 E.01678
M73 P1 R158
G1 X91.732 Y101.126 E.3443
G1 X91.197 Y101.126 E.01681
G1 X98.944 Y108.874 E.3443
G1 X98.41 Y108.874 E.01678
G1 X90.663 Y101.126 E.3443
G1 X90.128 Y101.126 E.01681
G1 X97.875 Y108.874 E.3443
G1 X97.341 Y108.874 E.01678
G1 X89.594 Y101.126 E.3443
G1 X89.059 Y101.126 E.01681
G1 X96.806 Y108.874 E.3443
G1 X96.272 Y108.874 E.01678
G1 X88.525 Y101.126 E.3443
G1 X87.99 Y101.126 E.01681
G1 X95.738 Y108.874 E.34432
G1 X95.203 Y108.874 E.01681
G1 X87.456 Y101.126 E.3443
G1 X86.922 Y101.126 E.01678
G1 X94.669 Y108.874 E.3443
G1 X94.134 Y108.874 E.01681
G1 X86.387 Y101.126 E.3443
G1 X85.853 Y101.126 E.01678
G1 X93.6 Y108.874 E.3443
G1 X93.065 Y108.874 E.01681
G1 X85.318 Y101.126 E.3443
G1 X84.784 Y101.126 E.01678
G1 X92.531 Y108.874 E.3443
G1 X91.996 Y108.874 E.01681
G1 X84.249 Y101.126 E.3443
G1 X83.715 Y101.126 E.01678
G1 X91.462 Y108.874 E.3443
G1 X90.927 Y108.874 E.01681
G1 X83.18 Y101.126 E.3443
G1 X82.646 Y101.126 E.01678
G1 X90.393 Y108.874 E.3443
G1 X89.859 Y108.874 E.01678
G1 X82.111 Y101.126 E.34432
G1 X81.577 Y101.126 E.01678
G1 X89.324 Y108.874 E.3443
G1 X88.79 Y108.874 E.01678
G1 X81.043 Y101.126 E.3443
G1 X80.508 Y101.126 E.01681
G1 X88.255 Y108.874 E.3443
G1 X87.721 Y108.874 E.01678
G1 X79.974 Y101.126 E.3443
G1 X79.439 Y101.126 E.01681
G1 X87.186 Y108.874 E.3443
G1 X86.652 Y108.874 E.01678
G1 X78.905 Y101.126 E.3443
G1 X78.745 Y101.126 E.00503
G1 X78.745 Y101.501 E.01178
G1 X86.117 Y108.874 E.32763
G1 X85.583 Y108.874 E.01678
G1 X78.745 Y102.035 E.3039
G1 X78.745 Y102.57 E.01681
M73 Q1 S159
G1 X85.048 Y108.874 E.28013
G1 X84.514 Y108.874 E.01678
G1 X78.745 Y103.104 E.2564
G1 X78.745 Y103.639 E.01681
G1 X83.98 Y108.874 E.23264
G1 X83.445 Y108.874 E.01681
G1 X78.745 Y104.173 E.20889
G1 X78.745 Y104.708 E.01681
G1 X82.911 Y108.874 E.18514
G1 X82.376 Y108.874 E.01681
G1 X78.745 Y105.242 E.16138
G1 X78.745 Y105.777 E.01681
G1 X81.842 Y108.874 E.13763
G1 X81.307 Y108.874 E.01681
G1 X78.745 Y106.311 E.11388
G1 X78.745 Y106.845 E.01678
G1 X80.773 Y108.874 E.09015
G1 X80.238 Y108.874 E.01681
G1 X78.745 Y107.38 E.06637
G1 X78.745 Y107.914 E.01678
G1 X79.704 Y108.874 E.04264
G1 X79.169 Y108.874 E.01681
G1 X78.575 Y108.279 E.02642
M204 S1000
; stop printing object product.stl id:0 copy 0
M106 S84.15
;LAYER_CHANGE
;Z:0.35
;HEIGHT:0.15
;BEFORE_LAYER_CHANGE
G92 E0.0
;0.35


;WIPE_START
G1 F8640
G1 X79.169 Y108.874 E-.19413
G1 X79.704 Y108.874 E-.12353
G1 X78.745 Y107.914 E-.31332
G1 X78.745 Y107.38 E-.1233
G1 X78.885 Y107.52 E-.04572
;WIPE_END
G1 Z.6 F720
;AFTER_LAYER_CHANGE
;0.35
M104 S210 ; set temperature
G1 X75.005 Y107.52 F10800
G1 Z.35 F720
G1 E.8 F2100
;TYPE:Skirt/Brim
;WIDTH:0.42
G1 F3000
G1 X75.005 Y100 E.18187
G1 X75.397 Y98.693 E.033
G1 X76.442 Y97.817 E.03298
G1 X77.382 Y97.623 E.02321
G1 X172.618 Y97.623 E2.30327
G1 X173.925 Y98.015 E.033
G1 X174.801 Y99.06 E.03298
G1 X174.995 Y100 E.02321
G1 X174.995 Y110 E.24185
G1 X174.603 Y111.307 E.033
G1 X173.558 Y112.183 E.03298
G1 X172.618 Y112.377 E.02321
G1 X77.382 Y112.377 E2.30327
G1 X76.075 Y111.985 E.033
G1 X75.199 Y110.94 E.03298
