; generated by PrusaSlicer 2.6.1+MacOS-arm64 on 2023-11-07 at 13:14:55 UTC


;
;
; 

; external perimeters extrusion width = 0.45mm
; perimeters extrusion width = 0.45mm
; infill extrusion width = 0.45mm
; solid infill extrusion width = 0.45mm
; top infill extrusion width = 0.40mm
; first layer extrusion width = 0.42mm

M73 P0 R171
M73 Q0 S172
M201 X1000 Y1000 Z200 E5000 ; sets maximum accelerations, mm/sec^2
M203 X200 Y200 Z12 E120 ; sets maximum feedrates, mm / sec
M204 S1250 T1250 ; sets acceleration (S) and retract acceleration (R), mm/sec^2
M205 X8.00 Y8.00 Z0.40 E4.50 ; sets the jerk limits, mm/sec
M205 S0 T0 ; sets the minimum extruding and travel feed rate, mm/sec
;TYPE:Custom
M862.3 P "MK3" ; printer model check
M862.1 P0.4 ; nozzle diameter check
M115 U3.13.0 ; tell printer latest fw version
G90 ; use absolute coordinates
M83 ; extruder relative mode
M104 S215 ; set extruder temp
M140 S60 ; set bed temp
M190 S60 ; wait for bed temp
M109 S215 ; wait for extruder temp
G28 W ; home all without mesh bed level
G80 ; mesh bed leveling

G1 Z0.2 F720
G1 Y-3 F1000 ; go outside print area
G92 E0
G1 X60 E9 F1000 ; intro line
G1 X100 E12.5 F1000 ; intro line

G92 E0
M221 S95

; Don't change E values below. Excessive value can damage the printer.

M907 E538 ; set extruder motor current
G21 ; set units to millimeters
G90 ; use absolute coordinates
M83 ; use relative distances for extrusion
M900 K0.05 ; Filament gcode LA 1.5
M900 K30 ; Filament gcode LA 1.0
M107
;LAYER_CHANGE
;Z:0.2
;HEIGHT:0.2
;BEFORE_LAYER_CHANGE
G92 E0.0
;0.2


G1 E-.8 F2100
G1 Z.4 F720
;AFTER_LAYER_CHANGE
;0.2
G1 X76.56 Y96.817 F10800
G1 Z.2 F720
G1 E.8 F2100
M204 S800
;TYPE:Skirt/Brim
;WIDTH:0.42
G1 F1200
G1 X77.5 Y96.623 E.03009
G1 X172.5 Y96.623 E2.97866
G1 X173.807 Y97.015 E.04278
G1 X174.683 Y98.06 E.04275
G1 X174.877 Y99 E.03009
G1 X174.877 Y111 E.37625
G1 X174.485 Y112.307 E.04278
G1 X173.44 Y113.183 E.04275
G1 X172.5 Y113.377 E.03009
G1 X77.5 Y113.377 E2.97866
G1 X76.193 Y112.985 E.04278
M73 Q0 S171
G1 X75.317 Y111.94 E.04275
G1 X75.123 Y111 E.03009
G1 X75.123 Y99 E.37625
G1 X75.515 Y97.693 E.04278
G1 X76.514 Y96.855 E.04088
M204 S1000
; printing object product.stl id:0 copy 0
;WIPE_START
G1 F8640
G1 X77.5 Y96.623 E-.23389
G1 X79.952 Y96.623 E-.56611
;WIPE_END
G1 Z.6 F720
G1 X136.763 Y103.811 F10800
G1 Z.2 F720
G1 E.8 F2100
M204 S800
;TYPE:Perimeter
;WIDTH:0.419999
G1 F1200
G1 X136.787 Y103.721 E.00292
G1 X136.787 Y99.787 E.12335
G1 X171.713 Y99.787 E1.09508
G1 X171.713 Y110.213 E.3269
G1 X78.287 Y110.213 E2.9293
G1 X78.287 Y99.787 E.3269
M73 P0 R170
G1 X113.213 Y99.787 E1.09508
G1 X113.213 Y103.721 E.12335
G1 X113.227 Y103.847 E.00397
G1 X113.351 Y104.092 E.00861
G1 X113.533 Y104.231 E.00718
G1 X113.779 Y104.287 E.00791
G1 X136.221 Y104.287 E.70365
G1 X136.319 Y104.279 E.00308
G1 X136.568 Y104.168 E.00855
G1 X136.708 Y104.009 E.00664
G1 X136.747 Y103.869 E.00456
M204 S1000
G1 X136.41 Y103.721 F10800
M204 S800
;TYPE:External perimeter
G1 F1200
G1 X136.41 Y99.41 E.13517
G1 X172.09 Y99.41 E1.11872
G1 X172.09 Y110.59 E.35054
G1 X77.91 Y110.59 E2.95294
G1 X77.91 Y99.41 E.35054
G1 X113.59 Y99.41 E1.11872
G1 X113.59 Y103.721 E.13517
G1 X113.636 Y103.845 E.00415
G1 X113.779 Y103.91 E.00493
G1 X136.221 Y103.91 E.70365
G1 X136.337 Y103.87 E.00385
G1 X136.384 Y103.775 E.00332
M204 S1000
G1 X136.796 Y103.618 F10800
;WIPE_START
G1 F8640
G1 X136.405 Y100.31 E-.8
;WIPE_END
G1 Z.6 F720
G1 X171.543 Y100.722 F10800
G1 Z.2 F720
G1 E.8 F2100
M204 S800
;TYPE:Solid infill
;WIDTH:0.421197
G1 F1200
G1 X170.948 Y100.126 E.02649
G1 X170.413 Y100.126 E.01683
G1 X171.374 Y101.087 E.04275
G1 X171.374 Y101.622 E.01683
G1 X169.878 Y100.126 E.06655
G1 X169.343 Y100.126 E.01683
G1 X171.374 Y102.157 E.09034
G1 X171.374 Y102.692 E.01683
G1 X168.808 Y100.126 E.11414
G1 X168.273 Y100.126 E.01683
G1 X171.374 Y103.227 E.13794
G1 X171.374 Y103.762 E.01683
G1 X167.738 Y100.126 E.16174
G1 X167.203 Y100.126 E.01683
G1 X171.374 Y104.297 E.18554
G1 X171.374 Y104.832 E.01683
G1 X166.668 Y100.126 E.20933
G1 X166.133 Y100.126 E.01683
G1 X171.374 Y105.367 E.23313
G1 X171.374 Y105.902 E.01683
G1 X165.598 Y100.126 E.25693
G1 X165.064 Y100.126 E.0168
G1 X171.374 Y106.436 E.28068
G1 X171.374 Y106.971 E.01683
G1 X164.529 Y100.126 E.30448
G1 X163.994 Y100.126 E.01683
G1 X171.374 Y107.506 E.32828
G1 X171.374 Y108.041 E.01683
G1 X163.459 Y100.126 E.35208
G1 X162.924 Y100.126 E.01683
G1 X171.374 Y108.576 E.37588
G1 X171.374 Y109.111 E.01683
G1 X162.389 Y100.126 E.39968
G1 X161.854 Y100.126 E.01683
G1 X171.374 Y109.646 E.42347
G1 X171.374 Y109.874 E.00717
G1 X171.066 Y109.874 E.00969
G1 X161.319 Y100.126 E.43359
G1 X160.784 Y100.126 E.01683
G1 X170.531 Y109.874 E.43359
G1 X169.996 Y109.874 E.01683
G1 X160.249 Y100.126 E.43359
G1 X159.714 Y100.126 E.01683
G1 X169.461 Y109.874 E.43359
G1 X168.926 Y109.874 E.01683
G1 X159.179 Y100.126 E.43359
G1 X158.644 Y100.126 E.01683
G1 X168.391 Y109.874 E.43359
G1 X167.856 Y109.874 E.01683
G1 X158.109 Y100.126 E.43359
G1 X157.574 Y100.126 E.01683
G1 X167.321 Y109.874 E.43359
G1 X166.786 Y109.874 E.01683
G1 X157.039 Y100.126 E.43359
G1 X156.504 Y100.126 E.01683
G1 X166.251 Y109.874 E.43359
G1 X165.716 Y109.874 E.01683
G1 X155.969 Y100.126 E.43359
G1 X155.434 Y100.126 E.01683
G1 X165.181 Y109.874 E.43359
G1 X164.646 Y109.874 E.01683
G1 X154.899 Y100.126 E.43359
G1 X154.364 Y100.126 E.01683
G1 X164.111 Y109.874 E.43359
G1 X163.576 Y109.874 E.01683
G1 X153.829 Y100.126 E.43359
G1 X153.294 Y100.126 E.01683
G1 X163.041 Y109.874 E.43359
G1 X162.506 Y109.874 E.01683
G1 X152.759 Y100.126 E.43359
G1 X152.224 Y100.126 E.01683
G1 X161.971 Y109.874 E.43359
G1 X161.436 Y109.874 E.01683
G1 X151.689 Y100.126 E.43359
G1 X151.154 Y100.126 E.01683
G1 X160.902 Y109.874 E.43362
G1 X160.367 Y109.874 E.01683
G1 X150.619 Y100.126 E.43362
G1 X150.084 Y100.126 E.01683
G1 X159.832 Y109.874 E.43362
G1 X159.297 Y109.874 E.01683
G1 X149.55 Y100.126 E.43359
G1 X149.015 Y100.126 E.01683
G1 X158.762 Y109.874 E.43359
G1 X158.227 Y109.874 E.01683
G1 X148.48 Y100.126 E.43359
G1 X147.945 Y100.126 E.01683
G1 X157.692 Y109.874 E.43359
G1 X157.157 Y109.874 E.01683
G1 X147.41 Y100.126 E.43359
G1 X146.875 Y100.126 E.01683
G1 X156.622 Y109.874 E.43359
G1 X156.087 Y109.874 E.01683
G1 X146.34 Y100.126 E.43359
G1 X145.805 Y100.126 E.01683
G1 X155.552 Y109.874 E.43359
G1 X155.017 Y109.874 E.01683
G1 X145.27 Y100.126 E.43359
G1 X144.735 Y100.126 E.01683
G1 X154.482 Y109.874 E.43359
G1 X153.947 Y109.874 E.01683
G1 X144.2 Y100.126 E.43359
G1 X143.665 Y100.126 E.01683
G1 X153.412 Y109.874 E.43359
G1 X152.877 Y109.874 E.01683
G1 X143.13 Y100.126 E.43359
G1 X142.595 Y100.126 E.01683
G1 X152.342 Y109.874 E.43359
G1 X151.807 Y109.874 E.01683
G1 X142.06 Y100.126 E.43359
G1 X141.525 Y100.126 E.01683
G1 X151.272 Y109.874 E.43359
G1 X150.737 Y109.874 E.01683
M73 Q0 S170
G1 X140.99 Y100.126 E.43359
G1 X140.455 Y100.126 E.01683
G1 X150.202 Y109.874 E.43359
G1 X149.667 Y109.874 E.01683
G1 X139.92 Y100.126 E.43359
G1 X139.385 Y100.126 E.01683
G1 X149.132 Y109.874 E.43359
G1 X148.597 Y109.874 E.01683
G1 X138.85 Y100.126 E.43359
G1 X138.315 Y100.126 E.01683
G1 X148.062 Y109.874 E.43359
G1 X147.527 Y109.874 E.01683
G1 X137.78 Y100.126 E.43359
G1 X137.245 Y100.126 E.01683
G1 X146.992 Y109.874 E.43359
G1 X146.457 Y109.874 E.01683
M73 P0 R169
G1 X137.126 Y100.543 E.41507
G1 X137.126 Y101.077 E.0168
G1 X145.923 Y109.874 E.39131
G1 X145.388 Y109.874 E.01683
G1 X137.126 Y101.612 E.36751
G1 X137.126 Y102.147 E.01683
G1 X144.853 Y109.874 E.34372
G1 X144.318 Y109.874 E.01683
G1 X137.126 Y102.682 E.31992
G1 X137.126 Y103.217 E.01683
G1 X143.783 Y109.874 E.29612
G1 X143.248 Y109.874 E.01683
G1 X137.124 Y103.75 E.27241
G1 X137.105 Y103.925 E.00554
G1 X137.008 Y104.169 E.00826
G1 X142.713 Y109.874 E.25377
G1 X142.178 Y109.874 E.01683
G1 X136.755 Y104.451 E.24123
G1 X136.614 Y104.538 E.00521
G1 X136.379 Y104.609 E.00772
G1 X141.643 Y109.874 E.23418
G1 X141.108 Y109.874 E.01683
G1 X135.861 Y104.626 E.23342
G1 X135.326 Y104.626 E.01683
G1 X140.573 Y109.874 E.23342
G1 X140.038 Y109.874 E.01683
G1 X134.791 Y104.626 E.23342
G1 X134.256 Y104.626 E.01683
G1 X139.503 Y109.874 E.23342
G1 X138.968 Y109.874 E.01683
G1 X133.721 Y104.626 E.23342
G1 X133.186 Y104.626 E.01683
G1 X138.433 Y109.874 E.23342
G1 X137.898 Y109.874 E.01683
G1 X132.651 Y104.626 E.23342
G1 X132.116 Y104.626 E.01683
G1 X137.363 Y109.874 E.23342
G1 X136.828 Y109.874 E.01683
G1 X131.581 Y104.626 E.23342
G1 X131.046 Y104.626 E.01683
G1 X136.293 Y109.874 E.23342
G1 X135.758 Y109.874 E.01683
G1 X130.511 Y104.626 E.23342
G1 X129.976 Y104.626 E.01683
G1 X135.223 Y109.874 E.23342
G1 X134.688 Y109.874 E.01683
G1 X129.441 Y104.626 E.23342
G1 X128.906 Y104.626 E.01683
G1 X134.153 Y109.874 E.23342
G1 X133.618 Y109.874 E.01683
G1 X128.371 Y104.626 E.23342
G1 X127.836 Y104.626 E.01683
G1 X133.083 Y109.874 E.23342
G1 X132.548 Y109.874 E.01683
G1 X127.301 Y104.626 E.23342
G1 X126.766 Y104.626 E.01683
G1 X132.013 Y109.874 E.23342
G1 X131.478 Y109.874 E.01683
G1 X126.231 Y104.626 E.23342
G1 X125.696 Y104.626 E.01683
G1 X130.944 Y109.874 E.23344
G1 X130.409 Y109.874 E.01683
G1 X125.161 Y104.626 E.23344
G1 X124.626 Y104.626 E.01683
G1 X129.874 Y109.874 E.23344
G1 X129.339 Y109.874 E.01683
G1 X124.092 Y104.626 E.23342
G1 X123.557 Y104.626 E.01683
G1 X128.804 Y109.874 E.23342
G1 X128.269 Y109.874 E.01683
G1 X123.022 Y104.626 E.23342
G1 X122.487 Y104.626 E.01683
G1 X127.734 Y109.874 E.23342
G1 X127.199 Y109.874 E.01683
G1 X121.952 Y104.626 E.23342
G1 X121.417 Y104.626 E.01683
G1 X126.664 Y109.874 E.23342
G1 X126.129 Y109.874 E.01683
G1 X120.882 Y104.626 E.23342
G1 X120.347 Y104.626 E.01683
G1 X125.594 Y109.874 E.23342
G1 X125.059 Y109.874 E.01683
G1 X119.812 Y104.626 E.23342
G1 X119.277 Y104.626 E.01683
G1 X124.524 Y109.874 E.23342
G1 X123.989 Y109.874 E.01683
G1 X118.742 Y104.626 E.23342
G1 X118.207 Y104.626 E.01683
G1 X123.454 Y109.874 E.23342
G1 X122.919 Y109.874 E.01683
G1 X117.672 Y104.626 E.23342
G1 X117.137 Y104.626 E.01683
G1 X122.384 Y109.874 E.23342
G1 X121.849 Y109.874 E.01683
M73 Q1 S170
G1 X116.602 Y104.626 E.23342
M73 P1 R169
G1 X116.067 Y104.626 E.01683
G1 X121.314 Y109.874 E.23342
G1 X120.779 Y109.874 E.01683
G1 X115.532 Y104.626 E.23342
G1 X114.997 Y104.626 E.01683
G1 X120.244 Y109.874 E.23342
G1 X119.709 Y109.874 E.01683
G1 X114.292 Y104.457 E.24096
M204 S1000
;WIPE_START
G1 F8640
G1 X116.742 Y106.907 E-.8
;WIPE_END
G1 Z.6 F720
G1 X113.043 Y100.533 F10800
G1 Z.2 F720
G1 E.8 F2100
M204 S800
G1 F1200
G1 X112.637 Y100.126 E.01808
G1 X112.102 Y100.126 E.01683
G1 X112.874 Y100.898 E.03434
G1 X112.874 Y101.433 E.01683
G1 X111.567 Y100.126 E.05814
G1 X111.032 Y100.126 E.01683
G1 X112.874 Y101.968 E.08194
G1 X112.874 Y102.503 E.01683
G1 X110.497 Y100.126 E.10573
G1 X109.962 Y100.126 E.01683
G1 X113.043 Y103.208 E.13707
M204 S1000
;WIPE_START
G1 F8640
G1 X110.594 Y100.758 E-.8
;WIPE_END
G1 Z.6 F720
G1 X109.258 Y99.957 F10800
G1 Z.2 F720
G1 E.8 F2100
M204 S800
G1 F1200
G1 X112.874 Y103.573 E.16085
G1 X112.874 Y103.735 E.0051
G1 X112.932 Y104.049 E.01004
G1 X113.09 Y104.311 E.00962
G1 X113.224 Y104.438 E.00581
G1 X113.386 Y104.538 E.00599
G1 X113.575 Y104.604 E.0063
G1 X113.927 Y104.626 E.01109
G1 X119.174 Y109.874 E.23342
G1 X118.639 Y109.874 E.01683
G1 X108.892 Y100.126 E.43359
G1 X108.357 Y100.126 E.01683
G1 X118.104 Y109.874 E.43359
G1 X117.569 Y109.874 E.01683
G1 X107.822 Y100.126 E.43359
G1 X107.287 Y100.126 E.01683
G1 X117.034 Y109.874 E.43359
G1 X116.499 Y109.874 E.01683
G1 X106.752 Y100.126 E.43359
G1 X106.217 Y100.126 E.01683
G1 X115.965 Y109.874 E.43362
G1 X115.43 Y109.874 E.01683
G1 X105.682 Y100.126 E.43362
G1 X105.147 Y100.126 E.01683
G1 X114.895 Y109.874 E.43362
G1 X114.36 Y109.874 E.01683
G1 X104.613 Y100.126 E.43359
G1 X104.078 Y100.126 E.01683
G1 X113.825 Y109.874 E.43359
G1 X113.29 Y109.874 E.01683
G1 X103.543 Y100.126 E.43359
G1 X103.008 Y100.126 E.01683
G1 X112.755 Y109.874 E.43359
G1 X112.22 Y109.874 E.01683
G1 X102.473 Y100.126 E.43359
G1 X101.938 Y100.126 E.01683
G1 X111.685 Y109.874 E.43359
G1 X111.15 Y109.874 E.01683
G1 X101.403 Y100.126 E.43359
G1 X100.868 Y100.126 E.01683
G1 X110.615 Y109.874 E.43359
G1 X110.08 Y109.874 E.01683
G1 X100.333 Y100.126 E.43359
G1 X99.798 Y100.126 E.01683
G1 X109.545 Y109.874 E.43359
G1 X109.01 Y109.874 E.01683
G1 X99.263 Y100.126 E.43359
G1 X98.728 Y100.126 E.01683
G1 X108.475 Y109.874 E.43359
G1 X107.94 Y109.874 E.01683
G1 X98.193 Y100.126 E.43359
G1 X97.658 Y100.126 E.01683
G1 X107.405 Y109.874 E.43359
G1 X106.87 Y109.874 E.01683
G1 X97.123 Y100.126 E.43359
G1 X96.588 Y100.126 E.01683
G1 X106.335 Y109.874 E.43359
G1 X105.8 Y109.874 E.01683
G1 X96.053 Y100.126 E.43359
G1 X95.518 Y100.126 E.01683
G1 X105.265 Y109.874 E.43359
G1 X104.73 Y109.874 E.01683
G1 X94.983 Y100.126 E.43359
G1 X94.448 Y100.126 E.01683
G1 X104.195 Y109.874 E.43359
G1 X103.66 Y109.874 E.01683
G1 X93.913 Y100.126 E.43359
G1 X93.378 Y100.126 E.01683
G1 X103.125 Y109.874 E.43359
G1 X102.59 Y109.874 E.01683
G1 X92.843 Y100.126 E.43359
G1 X92.308 Y100.126 E.01683
G1 X102.055 Y109.874 E.43359
G1 X101.52 Y109.874 E.01683
G1 X91.773 Y100.126 E.43359
G1 X91.238 Y100.126 E.01683
G1 X100.986 Y109.874 E.43362
G1 X100.451 Y109.874 E.01683
G1 X90.703 Y100.126 E.43362
G1 X90.168 Y100.126 E.01683
G1 X99.916 Y109.874 E.43362
G1 X99.381 Y109.874 E.01683
G1 X89.634 Y100.126 E.43359
G1 X89.099 Y100.126 E.01683
G1 X98.846 Y109.874 E.43359
G1 X98.311 Y109.874 E.01683
G1 X88.564 Y100.126 E.43359
G1 X88.029 Y100.126 E.01683
G1 X97.776 Y109.874 E.43359
G1 X97.241 Y109.874 E.01683
M73 Q1 S169
G1 X87.494 Y100.126 E.43359
G1 X86.959 Y100.126 E.01683
G1 X96.706 Y109.874 E.43359
G1 X96.171 Y109.874 E.01683
G1 X86.424 Y100.126 E.43359
G1 X85.889 Y100.126 E.01683
G1 X95.636 Y109.874 E.43359
G1 X95.101 Y109.874 E.01683
G1 X85.354 Y100.126 E.43359
G1 X84.819 Y100.126 E.01683
G1 X94.566 Y109.874 E.43359
G1 X94.031 Y109.874 E.01683
G1 X84.284 Y100.126 E.43359
G1 X83.749 Y100.126 E.01683
G1 X93.496 Y109.874 E.43359
G1 X92.961 Y109.874 E.01683
M73 P1 R168
G1 X83.214 Y100.126 E.43359
G1 X82.679 Y100.126 E.01683
G1 X92.426 Y109.874 E.43359
G1 X91.891 Y109.874 E.01683
G1 X82.144 Y100.126 E.43359
G1 X81.609 Y100.126 E.01683
G1 X91.356 Y109.874 E.43359
G1 X90.821 Y109.874 E.01683
G1 X81.074 Y100.126 E.43359
G1 X80.539 Y100.126 E.01683
G1 X90.286 Y109.874 E.43359
G1 X89.751 Y109.874 E.01683
G1 X80.004 Y100.126 E.43359
G1 X79.469 Y100.126 E.01683
G1 X89.216 Y109.874 E.43359
G1 X88.681 Y109.874 E.01683
G1 X78.934 Y100.126 E.43359
G1 X78.626 Y100.126 E.00969
G1 X78.626 Y100.354 E.00717
G1 X88.146 Y109.874 E.42347
G1 X87.611 Y109.874 E.01683
G1 X78.626 Y100.889 E.39968
G1 X78.626 Y101.424 E.01683
G1 X87.076 Y109.874 E.37588
G1 X86.541 Y109.874 E.01683
G1 X78.626 Y101.959 E.35208
G1 X78.626 Y102.493 E.0168
G1 X86.007 Y109.874 E.32833
G1 X85.472 Y109.874 E.01683
G1 X78.626 Y103.028 E.30453
G1 X78.626 Y103.563 E.01683
G1 X84.937 Y109.874 E.28073
G1 X84.402 Y109.874 E.01683
G1 X78.626 Y104.098 E.25693
G1 X78.626 Y104.633 E.01683
G1 X83.867 Y109.874 E.23313
G1 X83.332 Y109.874 E.01683
G1 X78.626 Y105.168 E.20933
G1 X78.626 Y105.703 E.01683
G1 X82.797 Y109.874 E.18554
G1 X82.262 Y109.874 E.01683
G1 X78.626 Y106.238 E.16174
G1 X78.626 Y106.773 E.01683
G1 X81.727 Y109.874 E.13794
G1 X81.192 Y109.874 E.01683
G1 X78.626 Y107.308 E.11414
G1 X78.626 Y107.843 E.01683
G1 X80.657 Y109.874 E.09034
G1 X80.122 Y109.874 E.01683
G1 X78.626 Y108.378 E.06655
G1 X78.626 Y108.913 E.01683
G1 X79.587 Y109.874 E.04275
G1 X79.052 Y109.874 E.01683
G1 X78.457 Y109.278 E.02649
M204 S1000
; stop printing object product.stl id:0 copy 0
M106 S84.15
;LAYER_CHANGE
;Z:0.35
;HEIGHT:0.15
;BEFORE_LAYER_CHANGE
G92 E0.0
;0.35


;WIPE_START
G1 F8640
G1 X79.052 Y109.874 E-.19446
G1 X79.587 Y109.874 E-.12353
G1 X78.626 Y108.913 E-.31381
G1 X78.626 Y108.378 E-.12353
G1 X78.763 Y108.515 E-.04467
;WIPE_END
G1 Z.6 F720
;AFTER_LAYER_CHANGE
;0.35
M104 S210 ; set temperature
G1 X75.123 Y108.515 F10800
G1 Z.35 F720
G1 E.8 F2100
;TYPE:Skirt/Brim
;WIDTH:0.42
G1 F3000
G1 X75.123 Y99 E.23012
G1 X75.515 Y97.693 E.033
G1 X76.56 Y96.817 E.03298
