; generated by PrusaSlicer 2.6.1+MacOS-arm64 on 2023-11-14 at 02:37:28 UTC


;
;
; 

; external perimeters extrusion width = 0.45mm
; perimeters extrusion width = 0.45mm
; infill extrusion width = 0.45mm
; solid infill extrusion width = 0.45mm
; top infill extrusion width = 0.40mm
; support material extrusion width = 0.35mm
; first layer extrusion width = 0.42mm

; external perimeters extrusion width = 0.45mm
; perimeters extrusion width = 0.45mm
; infill extrusion width = 0.45mm
; solid infill extrusion width = 0.45mm
; top infill extrusion width = 0.40mm
; support material extrusion width = 0.35mm
; first layer extrusion width = 0.42mm

; external perimeters extrusion width = 0.45mm
; perimeters extrusion width = 0.45mm
; infill extrusion width = 0.45mm
; solid infill extrusion width = 0.45mm
; top infill extrusion width = 0.40mm
; support material extrusion width = 0.35mm
; first layer extrusion width = 0.42mm

M73 P0 R86
M73 Q0 S85
M201 X1000 Y1000 Z200 E5000 ; sets maximum accelerations, mm/sec^2
M203 X200 Y200 Z12 E120 ; sets maximum feedrates, mm / sec
M204 S1250 T1250 ; sets acceleration (S) and retract acceleration (R), mm/sec^2
M205 X8.00 Y8.00 Z0.40 E4.50 ; sets the jerk limits, mm/sec
M205 S0 T0 ; sets the minimum extruding and travel feed rate, mm/sec
;TYPE:Custom
M862.3 P "MK3" ; printer model check
M862.1 P0.4 ; nozzle diameter check
M115 U3.13.0 ; tell printer latest fw version
G90 ; use absolute coordinates
M83 ; extruder relative mode
M104 S215 ; set extruder temp
M140 S60 ; set bed temp
M190 S60 ; wait for bed temp
M109 S215 ; wait for extruder temp
G28 W ; home all without mesh bed level
G80 ; mesh bed leveling

G1 Z0.2 F720
G1 Y-3 F1000 ; go outside print area
G92 E0
G1 X60 E9 F1000 ; intro line
G1 X100 E12.5 F1000 ; intro line

G92 E0
M221 S95

; Don't change E values below. Excessive value can damage the printer.

M907 E538 ; set extruder motor current
G21 ; set units to millimeters
G90 ; use absolute coordinates
M83 ; use relative distances for extrusion
M900 K0.05 ; Filament gcode LA 1.5
M900 K30 ; Filament gcode LA 1.0
M107
;LAYER_CHANGE
;Z:0.2
;HEIGHT:0.2
;BEFORE_LAYER_CHANGE
G92 E0.0
;0.2


G1 E-.8 F2100
G1 Z.4 F720
;AFTER_LAYER_CHANGE
;0.2
G1 X105.761 Y65.273 F10800
G1 Z.2 F720
G1 E.8 F2100
M204 S800
;TYPE:Skirt/Brim
;WIDTH:0.42
G1 F1200
G1 X106.726 Y64.308 E.04279
G1 X107.853 Y64.023 E.03645
G1 X117.853 Y64.023 E.31354
G1 X119.534 Y64.72 E.05706
G1 X134.534 Y79.72 E.66513
G1 X134.963 Y80.304 E.02272
G1 X149.981 Y109.21 E1.02135
G1 X150.249 Y110.306 E.03538
G1 X150.249 Y120.306 E.31354
G1 X149.553 Y121.987 E.05705
G1 X134.553 Y136.987 E.66513
G1 X133.086 Y137.673 E.05078
G1 X100.919 Y140.587 E1.0127
G1 X90.705 Y140.596 E.32025
G1 X89.398 Y140.205 E.04277
M73 P0 R85
G1 X88.522 Y139.159 E.04278
G1 X88.328 Y138.219 E.03009
G1 X88.328 Y98.219 E1.25417
G1 X88.613 Y97.091 E.03648
G1 X105.732 Y65.325 E1.13142
M204 S1000
; printing object product.stl id:1 copy 0
;WIPE_START
G1 F8640
G1 X106.726 Y64.308 E-.32836
G1 X107.853 Y64.023 E-.26842
G1 X108.733 Y64.023 E-.20322
;WIPE_END
G1 Z.6 F720
G1 X120.984 Y80.92 F10800
G1 Z.2 F720
G1 E.8 F2100
M204 S800
;TYPE:Support material
G1 F1200
G1 X118.333 Y80.92 E.08312
G1 X118.333 Y76.498 E.13865
G1 X120.984 Y76.498 E.08312
G1 X120.984 Y80.864 E.13689
M204 S1000
G1 X120.353 Y80.751 F10800
M204 S800
G1 F1200
G1 X120.353 Y76.838 E.12269
G1 X119.934 Y76.838 E.01314
G1 X119.934 Y80.581 E.11736
G1 X119.515 Y80.581 E.01314
G1 X119.515 Y76.838 E.11736
G1 X119.097 Y76.838 E.01311
G1 X119.097 Y80.581 E.11736
G1 X118.678 Y80.581 E.01314
G1 X118.678 Y76.668 E.12269
M204 S1000
;WIPE_START
G1 F8640
G1 X118.678 Y80.133 E-.8
;WIPE_END
G1 Z.6 F720
G1 X120.984 Y96.303 F10800
G1 Z.2 F720
G1 E.8 F2100
M204 S800
G1 F1200
G1 X118.333 Y96.303 E.08312
G1 X118.333 Y91.88 E.13868
G1 X120.984 Y91.88 E.08312
G1 X120.984 Y96.246 E.13689
M204 S1000
G1 X120.353 Y96.133 F10800
M204 S800
G1 F1200
G1 X120.353 Y92.22 E.12269
G1 X119.934 Y92.22 E.01314
G1 X119.934 Y95.963 E.11736
G1 X119.515 Y95.963 E.01314
G1 X119.515 Y92.22 E.11736
G1 X119.097 Y92.22 E.01311
G1 X119.097 Y95.963 E.11736
G1 X118.678 Y95.963 E.01314
G1 X118.678 Y92.05 E.12269
M204 S1000
;WIPE_START
G1 F8640
G1 X118.678 Y95.515 E-.8
;WIPE_END
G1 Z.6 F720
G1 X117.548 Y82.165 F10800
G1 Z.2 F720
G1 E.8 F2100
M204 S800
;TYPE:Perimeter
;WIDTH:0.419999
G1 F1200
G1 X117.632 Y82.187 E.00272
G1 X132.066 Y82.187 E.45257
G1 X132.066 Y90.613 E.26419
G1 X117.632 Y90.613 E.45257
G1 X117.528 Y90.623 E.00328
G1 X117.293 Y90.726 E.00804
G1 X117.133 Y90.913 E.00772
G1 X117.066 Y91.179 E.0086
G1 X117.066 Y105.613 E.45257
G1 X108.641 Y105.613 E.26416
G1 X108.641 Y67.187 E1.20482
G1 X117.066 Y67.187 E.26416
G1 X117.066 Y81.622 E.4526
G1 X117.074 Y81.715 E.00293
G1 X117.179 Y81.961 E.00839
G1 X117.355 Y82.115 E.00733
G1 X117.49 Y82.15 E.00437
M204 S1000
G1 X117.632 Y81.81 F10800
M204 S800
;TYPE:External perimeter
G1 F1200
G1 X132.443 Y81.81 E.46439
G1 X132.443 Y90.99 E.28783
G1 X117.632 Y90.99 E.46439
G1 X117.499 Y91.045 E.00451
G1 X117.443 Y91.179 E.00455
G1 X117.443 Y105.99 E.46439
G1 X108.263 Y105.99 E.28783
G1 X108.263 Y66.81 E1.22846
G1 X117.443 Y66.81 E.28783
G1 X117.443 Y81.622 E.46442
G1 X117.499 Y81.756 E.00455
G1 X117.576 Y81.788 E.00261
M204 S1000
G1 X117.736 Y82.197 F10800
;WIPE_START
G1 F8640
G1 X121.041 Y81.793 E-.8
;WIPE_END
G1 Z.6 F720
G1 X131.128 Y82.357 F10800
G1 Z.2 F720
G1 E.8 F2100
M204 S800
;TYPE:Solid infill
;WIDTH:0.423181
G1 F1200
G1 X131.727 Y82.956 E.02678
G1 X131.727 Y83.494 E.01701
G1 X130.759 Y82.527 E.04326
G1 X130.221 Y82.527 E.01701
G1 X131.727 Y84.032 E.06732
G1 X131.727 Y84.57 E.01701
G1 X129.684 Y82.526 E.09138
G1 X129.146 Y82.526 E.01701
G1 X131.727 Y85.108 E.11543
G1 X131.727 Y85.645 E.01698
G1 X128.608 Y82.526 E.13947
G1 X128.07 Y82.526 E.01701
G1 X131.727 Y86.183 E.16353
G1 X131.727 Y86.721 E.01701
G1 X127.532 Y82.526 E.18758
G1 X126.994 Y82.526 E.01701
G1 X131.727 Y87.259 E.21164
G1 X131.727 Y87.796 E.01698
G1 X126.456 Y82.526 E.23567
G1 X125.918 Y82.526 E.01701
G1 X131.727 Y88.334 E.25973
G1 X131.727 Y88.872 E.01701
G1 X125.381 Y82.526 E.28377
G1 X124.843 Y82.525 E.01701
G1 X131.727 Y89.41 E.30785
G1 X131.727 Y89.947 E.01698
G1 X124.305 Y82.525 E.33188
G1 X123.767 Y82.525 E.01701
G1 X131.516 Y90.274 E.3465
G1 X130.978 Y90.274 E.01701
G1 X123.229 Y82.525 E.3465
G1 X122.691 Y82.525 E.01701
G1 X130.44 Y90.274 E.3465
G1 X129.902 Y90.274 E.01701
G1 X122.153 Y82.525 E.3465
G1 X121.615 Y82.525 E.01701
G1 X129.365 Y90.274 E.34652
G1 X128.827 Y90.274 E.01701
G1 X121.078 Y82.525 E.3465
G1 X120.54 Y82.525 E.01701
G1 X128.289 Y90.274 E.3465
G1 X127.751 Y90.274 E.01701
G1 X120.002 Y82.524 E.34652
G1 X119.464 Y82.524 E.01701
G1 X127.213 Y90.274 E.34652
G1 X126.676 Y90.274 E.01698
G1 X118.926 Y82.524 E.34655
G1 X118.388 Y82.524 E.01701
G1 X126.138 Y90.274 E.34655
G1 X125.6 Y90.274 E.01701
G1 X117.681 Y82.354 E.35413
M204 S1000
;WIPE_START
G1 F8640
G1 X120.131 Y84.804 E-.8
;WIPE_END
G1 Z.6 F720
G1 X116.897 Y68.126 F10800
G1 Z.2 F720
G1 E.8 F2100
M204 S800
G1 F1200
G1 X116.297 Y67.527 E.02681
G1 X115.76 Y67.527 E.01698
G1 X116.727 Y68.494 E.04324
G1 X116.727 Y69.032 E.01701
G1 X115.222 Y67.527 E.0673
G1 X114.684 Y67.527 E.01701
G1 X116.727 Y69.57 E.09135
G1 X116.727 Y70.108 E.01701
G1 X114.146 Y67.527 E.11541
G1 X113.608 Y67.527 E.01701
G1 X116.727 Y70.645 E.13945
G1 X116.727 Y71.183 E.01701
G1 X113.071 Y67.527 E.16348
G1 X112.533 Y67.527 E.01701
G1 X116.727 Y71.721 E.18754
G1 X116.727 Y72.259 E.01701
G1 X111.995 Y67.527 E.2116
G1 X111.457 Y67.527 E.01701
G1 X116.727 Y72.796 E.23563
G1 X116.727 Y73.334 E.01701
M73 Q1 S85
G1 X110.92 Y67.527 E.25966
G1 X110.382 Y67.527 E.01701
M73 P1 R85
G1 X116.727 Y73.872 E.28372
G1 X116.727 Y74.41 E.01701
G1 X109.844 Y67.527 E.30778
G1 X109.306 Y67.527 E.01701
G1 X116.727 Y74.947 E.33181
G1 X116.727 Y75.485 E.01701
G1 X108.98 Y67.738 E.34641
G1 X108.98 Y68.276 E.01701
G1 X116.727 Y76.023 E.34641
G1 X116.727 Y76.561 E.01701
G1 X108.98 Y68.814 E.34641
G1 X108.98 Y69.351 E.01698
G1 X116.727 Y77.099 E.34644
G1 X116.727 Y77.636 E.01698
G1 X108.98 Y69.889 E.34641
G1 X108.98 Y70.427 E.01701
G1 X116.727 Y78.174 E.34641
G1 X116.727 Y78.712 E.01701
G1 X108.98 Y70.965 E.34641
G1 X108.98 Y71.503 E.01701
G1 X116.727 Y79.25 E.34641
G1 X116.727 Y79.787 E.01698
G1 X108.98 Y72.04 E.34641
G1 X108.98 Y72.578 E.01701
G1 X116.727 Y80.325 E.34641
G1 X116.727 Y80.863 E.01701
M73 Q1 S84
G1 X108.98 Y73.116 E.34641
G1 X108.98 Y73.654 E.01701
G1 X116.897 Y81.57 E.35399
M204 S1000
;WIPE_START
G1 F8640
G1 X114.447 Y79.12 E-.8
;WIPE_END
G1 Z.6 F720
G1 X108.81 Y74.022 F10800
G1 Z.2 F720
G1 E.8 F2100
M204 S800
G1 F1200
G1 X125.062 Y90.274 E.72672
G1 X124.525 Y90.274 E.01698
G1 X108.98 Y74.729 E.69511
G1 X108.98 Y75.267 E.01701
G1 X123.987 Y90.274 E.67105
G1 X123.449 Y90.274 E.01701
G1 X108.98 Y75.805 E.64699
G1 X108.98 Y76.342 E.01698
G1 X122.911 Y90.274 E.62296
G1 X122.374 Y90.274 E.01698
G1 X108.98 Y76.88 E.59892
G1 X108.98 Y77.418 E.01701
G1 X121.836 Y90.274 E.57487
G1 X121.298 Y90.274 E.01701
G1 X108.98 Y77.956 E.55081
G1 X108.98 Y78.494 E.01701
G1 X120.76 Y90.274 E.52675
G1 X120.222 Y90.274 E.01701
G1 X108.98 Y79.031 E.50272
G1 X108.98 Y79.569 E.01701
G1 X119.685 Y90.274 E.47868
G1 X119.147 Y90.274 E.01701
G1 X108.98 Y80.107 E.45463
G1 X108.98 Y80.645 E.01701
G1 X118.609 Y90.274 E.43057
G1 X118.071 Y90.274 E.01701
G1 X108.98 Y81.182 E.40653
G1 X108.98 Y81.72 E.01701
M73 P1 R84
G1 X117.541 Y90.282 E.38283
G1 X117.46 Y90.289 E.00257
G1 X117.189 Y90.388 E.00912
G1 X117.144 Y90.422 E.00178
G1 X108.98 Y82.258 E.36506
G1 X108.98 Y82.796 E.01701
G1 X116.877 Y90.692 E.3531
G1 X116.832 Y90.753 E.0024
G1 X116.741 Y91.017 E.00883
G1 X116.734 Y91.088 E.00226
G1 X108.98 Y83.334 E.34673
G1 X108.98 Y83.871 E.01698
G1 X116.727 Y91.618 E.34641
G1 X116.727 Y92.156 E.01701
G1 X108.98 Y84.409 E.34641
G1 X108.98 Y84.947 E.01701
G1 X116.727 Y92.694 E.34641
G1 X116.727 Y93.232 E.01701
G1 X108.98 Y85.485 E.34641
G1 X108.98 Y86.022 E.01698
G1 X116.727 Y93.769 E.34641
G1 X116.727 Y94.307 E.01701
G1 X108.98 Y86.56 E.34641
G1 X108.98 Y87.098 E.01701
G1 X116.727 Y94.845 E.34641
G1 X116.727 Y95.383 E.01701
G1 X108.98 Y87.636 E.34641
G1 X108.98 Y88.173 E.01698
G1 X116.727 Y95.921 E.34644
G1 X116.727 Y96.458 E.01698
G1 X108.98 Y88.711 E.34641
G1 X108.98 Y89.249 E.01701
G1 X116.727 Y96.996 E.34641
G1 X116.727 Y97.534 E.01701
G1 X108.98 Y89.787 E.34641
G1 X108.98 Y90.325 E.01701
G1 X116.727 Y98.072 E.34641
G1 X116.727 Y98.609 E.01698
G1 X108.98 Y90.862 E.34641
G1 X108.98 Y91.4 E.01701
G1 X116.727 Y99.147 E.34641
G1 X116.727 Y99.685 E.01701
G1 X108.98 Y91.938 E.34641
G1 X108.98 Y92.476 E.01701
G1 X116.727 Y100.223 E.34641
G1 X116.727 Y100.76 E.01698
G1 X108.98 Y93.013 E.34641
G1 X108.98 Y93.551 E.01701
G1 X116.727 Y101.298 E.34641
G1 X116.727 Y101.836 E.01701
G1 X108.98 Y94.089 E.34641
G1 X108.98 Y94.627 E.01701
G1 X116.727 Y102.374 E.34641
G1 X116.727 Y102.912 E.01701
G1 X108.98 Y95.164 E.34644
G1 X108.98 Y95.702 E.01701
G1 X116.727 Y103.449 E.34641
G1 X116.727 Y103.987 E.01701
G1 X108.98 Y96.24 E.34641
G1 X108.98 Y96.778 E.01701
G1 X116.727 Y104.525 E.34641
G1 X116.727 Y105.063 E.01701
G1 X108.98 Y97.316 E.34641
G1 X108.98 Y97.853 E.01698
G1 X116.401 Y105.274 E.33184
G1 X115.863 Y105.274 E.01701
G1 X108.98 Y98.391 E.30778
G1 X108.98 Y98.929 E.01701
G1 X115.325 Y105.274 E.28372
G1 X114.787 Y105.274 E.01701
G1 X108.98 Y99.467 E.25966
G1 X108.98 Y100.004 E.01698
G1 X114.249 Y105.274 E.23563
G1 X113.712 Y105.274 E.01698
G1 X108.98 Y100.542 E.2116
G1 X108.98 Y101.08 E.01701
G1 X113.174 Y105.274 E.18754
G1 X112.636 Y105.274 E.01701
G1 X108.98 Y101.618 E.16348
G1 X108.98 Y102.155 E.01698
G1 X112.098 Y105.274 E.13945
G1 X111.561 Y105.274 E.01698
G1 X108.98 Y102.693 E.11541
G1 X108.98 Y103.231 E.01701
G1 X111.023 Y105.274 E.09135
G1 X110.485 Y105.274 E.01701
G1 X108.98 Y103.769 E.0673
G1 X108.98 Y104.307 E.01701
G1 X109.947 Y105.274 E.04324
G1 X109.41 Y105.274 E.01698
G1 X108.81 Y104.675 E.02681
M204 S1000
; stop printing object product.stl id:1 copy 0
; printing object product.stl id:2 copy 0
;WIPE_START
G1 F8640
G1 X109.41 Y105.274 E-.19576
G1 X109.947 Y105.274 E-.12399
G1 X108.98 Y104.307 E-.31577
G1 X108.98 Y103.769 E-.12423
G1 X109.103 Y103.892 E-.04025
;WIPE_END
G1 Z.6 F720
G1 X136.003 Y109.826 F10800
G1 Z.2 F720
G1 E.8 F2100
M204 S800
;TYPE:Support material
;WIDTH:0.42
G1 F1200
G1 X133.352 Y109.826 E.08312
G1 X133.352 Y105.404 E.13865
G1 X136.003 Y105.404 E.08312
G1 X136.003 Y109.769 E.13686
M204 S1000
G1 X135.372 Y109.656 F10800
M204 S800
G1 F1200
G1 X135.372 Y105.743 E.12269
G1 X134.953 Y105.743 E.01314
G1 X134.953 Y109.487 E.11739
G1 X134.534 Y109.487 E.01314
G1 X134.534 Y105.743 E.11739
G1 X134.115 Y105.743 E.01314
G1 X134.115 Y109.487 E.11739
G1 X133.696 Y109.487 E.01314
G1 X133.696 Y105.573 E.12272
M204 S1000
;WIPE_START
G1 F8640
G1 X133.696 Y109.038 E-.8
;WIPE_END
G1 Z.6 F720
G1 X136.003 Y125.208 F10800
G1 Z.2 F720
G1 E.8 F2100
M204 S800
G1 F1200
G1 X133.352 Y125.208 E.08312
G1 X133.352 Y120.786 E.13865
G1 X136.003 Y120.786 E.08312
G1 X136.003 Y125.152 E.13689
M204 S1000
G1 X135.372 Y125.039 F10800
M204 S800
G1 F1200
G1 X135.372 Y121.125 E.12272
G1 X134.953 Y121.125 E.01314
G1 X134.953 Y124.869 E.11739
G1 X134.534 Y124.869 E.01314
G1 X134.534 Y121.125 E.11739
G1 X134.115 Y121.125 E.01314
G1 X134.115 Y124.869 E.11739
G1 X133.696 Y124.869 E.01314
G1 X133.696 Y120.956 E.12269
M204 S1000
;WIPE_START
G1 F8640
G1 X133.696 Y124.421 E-.8
;WIPE_END
G1 Z.6 F720
G1 X132.566 Y111.071 F10800
G1 Z.2 F720
G1 E.8 F2100
M204 S800
;TYPE:Perimeter
;WIDTH:0.419999
G1 F1200
G1 X132.65 Y111.093 E.00272
G1 X147.085 Y111.093 E.4526
G1 X147.085 Y119.519 E.26419
G1 X132.65 Y119.519 E.4526
M73 Q2 S84
G1 X132.546 Y119.529 E.00328
M73 P2 R84
G1 X132.311 Y119.632 E.00804
G1 X132.151 Y119.818 E.00769
G1 X132.085 Y120.085 E.00862
G1 X132.085 Y134.519 E.45257
G1 X123.659 Y134.519 E.26419
G1 X123.659 Y96.093 E1.20482
G1 X132.085 Y96.093 E.26419
G1 X132.085 Y110.527 E.45257
G1 X132.092 Y110.621 E.00296
G1 X132.198 Y110.867 E.0084
G1 X132.373 Y111.02 E.00729
G1 X132.508 Y111.056 E.00438
M204 S1000
G1 X132.65 Y110.716 F10800
M204 S800
;TYPE:External perimeter
G1 F1200
G1 X147.462 Y110.716 E.46442
G1 X147.462 Y119.896 E.28783
G1 X132.65 Y119.896 E.46442
G1 X132.517 Y119.951 E.00451
G1 X132.462 Y120.085 E.00454
G1 X132.462 Y134.896 E.46439
G1 X123.282 Y134.896 E.28783
G1 X123.282 Y95.716 E1.22846
G1 X132.462 Y95.716 E.28783
G1 X132.462 Y110.527 E.46439
G1 X132.517 Y110.661 E.00454
G1 X132.595 Y110.693 E.00264
M204 S1000
G1 X132.754 Y111.102 F10800
;WIPE_START
G1 F8640
G1 X136.06 Y110.698 E-.8
;WIPE_END
G1 Z.6 F720
G1 X146.146 Y111.263 F10800
G1 Z.2 F720
G1 E.8 F2100
M204 S800
;TYPE:Solid infill
;WIDTH:0.423181
G1 F1200
G1 X146.745 Y111.862 E.02678
G1 X146.745 Y112.4 E.01701
G1 X145.778 Y111.432 E.04326
G1 X145.24 Y111.432 E.01701
G1 X146.745 Y112.938 E.06732
G1 X146.745 Y113.475 E.01698
G1 X144.702 Y111.432 E.09135
G1 X144.164 Y111.432 E.01701
G1 X146.745 Y114.013 E.11541
G1 X146.745 Y114.551 E.01701
G1 X143.626 Y111.432 E.13947
G1 X143.088 Y111.432 E.01701
G1 X146.745 Y115.089 E.16353
G1 X146.745 Y115.626 E.01698
G1 X142.55 Y111.432 E.18756
G1 X142.012 Y111.431 E.01701
G1 X146.745 Y116.164 E.21164
G1 X146.745 Y116.702 E.01701
G1 X141.475 Y111.431 E.23567
G1 X140.937 Y111.431 E.01701
G1 X146.745 Y117.24 E.25973
G1 X146.745 Y117.778 E.01701
G1 X140.399 Y111.431 E.28379
G1 X139.861 Y111.431 E.01701
G1 X146.745 Y118.315 E.30782
G1 X146.745 Y118.853 E.01701
G1 X139.323 Y111.431 E.33188
G1 X138.785 Y111.431 E.01701
M73 Q2 S83
G1 X146.534 Y119.18 E.3465
G1 X145.996 Y119.18 E.01701
G1 X138.247 Y111.431 E.3465
G1 X137.709 Y111.431 E.01701
G1 X145.458 Y119.18 E.3465
G1 X144.921 Y119.18 E.01698
G1 X137.172 Y111.43 E.34652
G1 X136.634 Y111.43 E.01701
G1 X144.383 Y119.18 E.34652
G1 X143.845 Y119.18 E.01701
G1 X136.096 Y111.43 E.34652
G1 X135.558 Y111.43 E.01701
G1 X143.307 Y119.18 E.34652
G1 X142.77 Y119.18 E.01698
G1 X135.02 Y111.43 E.34655
G1 X134.482 Y111.43 E.01701
G1 X142.232 Y119.18 E.34655
G1 X141.694 Y119.18 E.01701
G1 X133.944 Y111.43 E.34655
